X:1
T:Dove n'andro
T:Dove n'andro
T:Giovanni Felice Sances
T:Source : Cantate et arie a voce sola---Libro IV---Venetia---A.Vincenti---1636 Editor : André Vierendeels (01/04/15).
T:Notes : Original clefs : C1, F4 Editorial accidentals above the staff Original note values have been halved Square brackets indicate ligatures Dotted brackets indicate black notes BC:"alfabetto per la chitarra alla spagnola" realised by the editor
C:Giovanni Felice Sances
%%score 1 { ( 2 4 ) | 3 }
L:1/8
Q:1/4=120
M:3/2
K:C
V:1 treble nm="Canto" snm="C"
V:2 treble nm="BC" snm="BC"
V:4 treble 
V:3 bass 
V:1
 z4 z4 d4 |: g4 f4 g4 | e4 d4 e4 | c4 B4 c4 | A4 G4 A4 | ^F12 | z4 d4 c4 | B8 z4 | z4 g4 f4 | %9
w: Do-|ve n'an- *|dro che _|non mi _|se- gu'A- *||do- *|ve,|do- *|
w: E|for- za _|pur ch'a _|lui s'in- *|vo- l'il _|_|e for-|za,|e for-|
w: Chi|dun- que'a _|lui m'as- *|con- de _|per mer- *||chi dun-|que,|chi dun-|
 e4 d4 e4 | e4 d4 e4 | c4 e8- | e4 d4 c4 | B4 c2 B2 c2 d2 | e8 G4 | A12 |1 z4 z4 d4 ::2 z4 z4 D4 || %18
w: ve, do- *|ve n'an- *|dro che|_ non mi|se- * * * *|* gu'A-|mor,|do|s'io|
w: za, e for-|za pur _|ch'a lui|_ s'in- vo-|l'il _ _ _ _|_ _|pie,|e|fol-|
w: que, chi dun-|que'a lui _|m'as- con-|* de per|mer- * * * *||ce,|chi|da|
 D4 E2 D2 E2 F2 | G2 A2 B2 c2 d2 B2 | e4 f2 e2 f2 g2 | a8 d4 | d12 | d4 c4 B4 | c4 B4 A4 | %25
w: vo- * * * *|||* lo'in|ciel|ha- * *|l'a _ le|
w: le pie- * * *||||ta,|pro- met- te'al-|l'a- * ni-|
w: tal ti- * * *||||mor,|dhe voi scio-|gliet- * ti|
 B6 A2 G4 | z4 c2 B2 A2 G2 | ^F4 F6 E2 | E12 | z4 z4 e4 | g4 f8 | e2 f2 e2 d2 c2 B2 | %32
w: ra- pi- di|que- * * *|* sto cru-|del,|s'io|fug- go'in|mar _ _ _ _ _|
w: ma, _ _|poi _ _ _|_ mor- te|da,|trop-|po scher-|nir, _ _ _ _ _|
w: _ _ _|don- * * *|* na mio|cor|nel|vo- stro|sen, _ _ _ _ _|
 A2 B2 A2 G2 F2 E2 | D12 | B4 c4 d4 | e6 d2 c4 | z4 f2 e2 d2 c2 | B4 B6 A2 | A12 | z12 | A4 B4 c4 | %41
w: _ _ _ _ _ _||ei nu- do'e|a- gi- le|cor- * * *|* re'a no-|tar,||ei nu- do'e|
w: _ _ _ _ _ _||fe que- sto|per- fi- do|nol _ _ _|_ vo so-|frir,||fe que- sto|
w: _ _ _ _ _ _||pre- sto ce-|la te- mi|ch'i- * * *|* vi non|vien,||pre- sto ce-|
 d6 c2 B4 | e2 f2 e2 d2 c2 B2 | A4 B2 A2 B2 c2 | d4 e2 d2 e2 f2 | g8 f4 | z12 | z4 G2 A2 B2 c2 | %48
w: a- gi- le|cor- * * * * *|||* re,||cor- * * *|
w: per- fi- do|nol _ _ _ _ _|_ _ _ _ _|vo so- * * *|* frir,||nol _ _ _|
w: la- te- mi|ch'i- * * * * *||vi non _ _ _|_ vien||ch'i- * * *|
 A4 A6 G2 | G12 :| %50
w: * re'a no-|tar.|
w: _ vo so-|frir.|
w: * vi non|vien.|
V:2
 [DB]8 [DA]4 |: G12 | G8 B4 | [Ec]4 [DB]4 [EG]4 | A4 B4 c4 | d8 c4 | [Ad]12 | [DB]8 [^FA]4 | d12 | %9
 [Ec]4 [FA]4 G4 | [DG]4 [GB]4 [EB]4 | G12 | c4 d4 c4 | [DB]12 | [Gc]12 | [^FA]12 |1 %16
 [DB]8 [^Fd]4 ::2 [DG]8 [DA]4 || [GB]12 | [CG]12 | [EG]12 | [DA]12 | [DB]12 | [DA]8 [EB]4 | %24
 c4 B4 A4 | [Bd]12 | [Ec]12 | [^D^F]12 | [GB]12 | [EG]12 | G4 B8 | [EG]12 | [DA]12 | [DB]12 | %34
 B4 c4 d4 | z12 | z12 | x12 | x12 | A6 B2 d2 c2 | A4 B4 c4 | [Gd]8 [DB]4 | [EG]12 | [B,F]8 [EG]4 | %44
 [DG]8 [Ec]4 | B4 d8 | [Gc]8 [^FA]4 | c4 G8 | G4 A4 d4 | [DB]12 :| %50
V:3
 G,8 A,4 |: B,12 | C8 B,4 | A,8 G,4 | ^F,8 E,4 | D,8 E,4 | ^F,12 | G,8 A,4 | B,12 | C8 F,4 | G,12 | %11
 C,8 D,4 | E,8 ^F,4 | G,8 ^F,4 | E,12 | D,8 C,4 |1 G,8 A,4 ::2 B,,8 A,,4 || G,,4 G,4 F,4 | %19
 E,8 D,4 | C,4 C2 B,2 A,2 G,2 | ^F,12 | G,12 | ^F,8 ^G,4 | A,8 ^F,4 | G,12 | A,12 | B,8 B,,4 | %28
 E,6 F,2 E,2 D,2 | C,8 C4 | B,8 B,4 | C12 | ^F,12 |"^-natural" G,8 F,4 | E,8 D,4 | C,12 | D,12 | %37
 E,12 | A,6 B,2 A,2 G,2 | ^F,6 G,2 F,2 E,2 | D,8 C,4 | B,,12 | C,12 | D,8 C,4 | B,,8 A,,4 | %45
 G,,4 G,4 F,4 | E,8 D,4 | C,12 | D,12 | G,,12 :| %50
V:4
 x12 |: D12 | E4 F4 E4 | x12 | D8 E4 | A12 | x12 | x12 | G8 D4 | x12 | x12 | E8 D4 | G8 A4 | x12 | %14
 x12 | x12 |1 x12 ::2 x12 || x12 | x12 | x12 | x12 | x12 | x12 | E8 z4 | x12 | x12 | x12 | x12 | %29
 x12 | D8 F4 | x12 | x12 | x12 | G8 F4 | x12 | x12 | E12 | E6 D2 C2 D2 | D6 G2 A2 E2 | ^F8 z4 | %41
 x12 | x12 | x12 | x12 | D4 G4 A4 | x12 | E4 E8 | D4 G4 ^F4 | x12 :| %50

